packages/assets/static/images/icons/bold/bridge--bold.svg

<svg width="24" height="24" viewBox="0 0 24 24" xmlns="http://www.w3.org/2000/svg">
<path d="M21.7499 14.625H19.1249V10.4522C19.7666 11.052 20.513 11.5287 21.3271 11.8584C21.4641 11.9138 21.6106 11.9417 21.7584 11.9405C21.9061 11.9393 22.0522 11.9089 22.1882 11.8513C22.3242 11.7936 22.4475 11.7097 22.5511 11.6044C22.6547 11.499 22.7366 11.3743 22.792 11.2373C22.8474 11.1004 22.8753 10.9538 22.874 10.8061C22.8728 10.6584 22.8425 10.5123 22.7848 10.3763C22.7271 10.2403 22.6432 10.1169 22.5379 10.0133C22.4326 9.90974 22.3078 9.8279 22.1709 9.7725C21.2689 9.41002 20.4965 8.78524 19.9534 7.97898C19.4104 7.17272 19.1218 6.22207 19.1249 5.25C19.1249 4.95163 19.0064 4.66548 18.7954 4.4545C18.5845 4.24353 18.2983 4.125 17.9999 4.125C17.7016 4.125 17.4154 4.24353 17.2044 4.4545C16.9935 4.66548 16.8749 4.95163 16.8749 5.25C16.8749 6.54293 16.3613 7.78291 15.4471 8.69715C14.5328 9.61139 13.2929 10.125 11.9999 10.125C10.707 10.125 9.46703 9.61139 8.55279 8.69715C7.63855 7.78291 7.12494 6.54293 7.12494 5.25C7.12494 4.95163 7.00641 4.66548 6.79543 4.4545C6.58446 4.24353 6.29831 4.125 5.99994 4.125C5.70157 4.125 5.41542 4.24353 5.20444 4.4545C4.99347 4.66548 4.87494 4.95163 4.87494 5.25C4.87762 6.22186 4.58869 7.17217 4.04552 7.97808C3.50235 8.78398 2.7299 9.40841 1.82806 9.77063C1.55145 9.88251 1.33062 10.0997 1.21414 10.3744C1.09766 10.6491 1.09508 10.9589 1.20697 11.2355C1.31886 11.5121 1.53605 11.7329 1.81076 11.8494C2.08547 11.9659 2.3952 11.9685 2.67181 11.8566C3.4859 11.5268 4.23238 11.0501 4.874 10.4503V14.625H2.24994C1.95157 14.625 1.66542 14.7435 1.45444 14.9545C1.24347 15.1655 1.12494 15.4516 1.12494 15.75C1.12494 16.0484 1.24347 16.3345 1.45444 16.5455C1.66542 16.7565 1.95157 16.875 2.24994 16.875H4.87494V18.75C4.87494 19.0484 4.99347 19.3345 5.20444 19.5455C5.41542 19.7565 5.70157 19.875 5.99994 19.875C6.29831 19.875 6.58446 19.7565 6.79543 19.5455C7.00641 19.3345 7.12494 19.0484 7.12494 18.75V16.875H16.8749V18.75C16.8749 19.0484 16.9935 19.3345 17.2044 19.5455C17.4154 19.7565 17.7016 19.875 17.9999 19.875C18.2983 19.875 18.5845 19.7565 18.7954 19.5455C19.0064 19.3345 19.1249 19.0484 19.1249 18.75V16.875H21.7499C22.0483 16.875 22.3345 16.7565 22.5454 16.5455C22.7564 16.3345 22.8749 16.0484 22.8749 15.75C22.8749 15.4516 22.7564 15.1655 22.5454 14.9545C22.3345 14.7435 22.0483 14.625 21.7499 14.625ZM13.1249 12.2859V14.625H10.8749V12.2859C11.6202 12.4047 12.3796 12.4047 13.1249 12.2859ZM7.12494 10.4419C7.57617 10.8654 8.08036 11.2288 8.62494 11.5228V14.625H7.12494V10.4419ZM15.3749 14.625V11.5228C15.9195 11.2288 16.4237 10.8654 16.8749 10.4419V14.625H15.3749Z"/>
</svg>

<svg viewBox="0 0 24 24" xmlns="http://www.w3.org/2000/svg" aria-hidden="true" fill="currentColor"><path d="M21.75 14.625h-2.625v-4.173a7.2 7.2 0 0 0 2.202 1.406 1.126 1.126 0 0 0 .844-2.085 4.86 4.86 0 0 1-3.046-4.523 1.125 1.125 0 1 0-2.25 0 4.875 4.875 0 1 1-9.75 0 1.125 1.125 0 0 0-2.25 0 4.86 4.86 0 0 1-3.047 4.52 1.125 1.125 0 1 0 .844 2.087 7.2 7.2 0 0 0 2.202-1.407v4.175H2.25a1.125 1.125 0 1 0 0 2.25h2.625v1.875a1.125 1.125 0 0 0 2.25 0v-1.875h9.75v1.875a1.125 1.125 0 0 0 2.25 0v-1.875h2.625a1.125 1.125 0 1 0 0-2.25m-8.625-2.34v2.34h-2.25v-2.34a7.2 7.2 0 0 0 2.25 0m-6-1.843c.451.423.955.787 1.5 1.08v3.103h-1.5zm8.25 4.183v-3.102a7.2 7.2 0 0 0 1.5-1.081v4.183z"/></svg>
